X:1
T:Title
%%score { 1 | 2 }
L:1/8
Q:1/4=100
M:4/4
K:F
V:1 treble nm="Grand Piano"
V:2 bass 
V:1
 F2 A2 A>G F>E | F4 C4 | F2 F2 A>[CEG] [CF]>[CFA] | [EG]6 z2 | A2 c2 c>B A>G | F4 C2 CC | %6
w: W.~J.~Kirkpatrick * * * * *||||||
 D2 [DB]2 A2 G2 | F6 z2 | [EG]2 [EG]2 [GB]>[FA] [EG]>[FA] | [GB]4 [EG]3 [EG] | %10
w: ||||
 [CFA]>[CGB] [CAc]2 [CAc]>[CGB] [CFA]2 | [CFA]4 [CEG]4 | %12
w: ||
 [CFA]>[CFA] [CFA]>[CGB] [CAc]>[CAc] [CGB]>[CFA] | [B,DG]4 [B,D]2 [DGB]2 | %14
w: ||
 [CFA]2 [B,CA]>[A,CF] [B,CG]2 [G,CE]2 | [F,A,CF]6 z2 |] %16
w: ||
V:2
 [F,A,C]2 [F,CF]2 [F,CF]>[F,B,C] [F,A,C]>[F,B,C] | [F,A,C]4 [F,A,]4 | %2
 [F,A,C]2 [F,A,C]2 [F,CF]>C, A,,>[F,,F,] | [C,C]6 z2 | %4
 [F,CF]2 [F,A,_E]2 [F,D]>[F,D] [F,C]>[F,B,C] | [F,A,C]4 [F,A,]2 [A,,F,][A,,F,] | %6
 [B,,F,B,]2 [B,,F,]2 [C,F,C]2 [C,B,C]2 | [F,A,C]6 z2 | [C,C]2 [C,C]2 [C,C]>[C,C] [C,C]>[C,C] | %9
 [C,C]4 [C,C]3 [C,C] | F,>F, F,2 F,>F, F,2 | C,4 C,4 | F,>F, F,>F, F,>F, F,>F, | B,,4 B,,2 B,,2 | %14
 C,2 C,>C, C,2 C,2 | F,,6 z2 |] %16

